X:1
T:Partition sans titre
C:Compositeur / Arrangeur
L:1/8
M:4/4
I:linebreak $
K:A
V:1 treble nm="Violon" snm="Vln."
V:1
 ed |"A" cAEA cAec |"E" dBGB dBed |"A" cefg afed | cAec"D" d2 ed |"A" cAEA cAec |"E" dBGB dBed | %7
"A" cefg afed | cA"E"BG"A" A2 :: eg |"A" a2 ab"D" ag f2 |"Bm" fbb^a b2 fg |"D" afbf"A" afeg | %13
"D" fe^df"A" e2 fg |"A" a2 ga fece |"D" fB"E"gB"A" aece |"D" fB"E"gB"A" afed | cA"E"BG"A" A2 :| %18
